X: 953
T: Take Me Back to Georgia
B: jims roots
M:4/4
L:1/8
Q: 1/4=100
K:C
V:1 
(3G,A,B, |:"C"CB,CE G2E2 | "F"FEFA "(D)"d2 dc | "G"B2 GB AGAB |"C"cBce cAGF |
EC2 EG2E2 | "F"FEFA "D"d2dc | "G"B2GB AGBA |[1 "C"c2cd c2 (3G,A,B, :|
V:2"C"c2cd c2yJ([e2e
 |: "C"[ee])ged cdeg | a2g2g3 J(B | "G"B)cBA GABc | "C"d2c4 J[e2e]-|
V:ee 
ged cdeg | a2g4 J(c'2 | "G"c'2) b2 abag |["C"e2c4 J[e2e]:|[2"C"e2c4|]
% abcbook-tune_id 6298c2970a48727f56e77975


% abcbook-boost 0
% abcbook-tablature 
% abcbook-transpose 
% abcbook-lastupdated 1654178455841
% abcbook-soundfonts 
% abcbook-repeats 1


